!!!COM: Beethoven
!!!OTL: 13 Variationen uber "Es war einmal ein alter Mann" aus "Das rote Kappchen" von K. Ditters von Dittersdorf
!!!Variation: 2 f
**kern	**harm	**kern	**kern	**kern
*M2/4	*M2/4	*staff3	*staff2	*staff1
*	*	*clefF4	*clefF4	*clefG2
*	*	*k[f#c#g#]	*k[f#c#g#]	*k[f#c#g#]
*	*	*M2/4	*M2/4	*M2/4
*	*	*A:	*A:	*A:
4T	4I	4r	4r	16eeLL
.	.	.	.	16dd
.	.	.	.	16cc#
.	.	.	.	16bJJ)
*	*	*clefF4	*	*
=	=	=102	=102	=102
2T	2I	8E'L	2r	8a
.	.	8A'J	.	8r
.	.	(16AALL	.	4r
.	.	16BB	.	.
.	.	16C#	.	.
.	.	16DJJ	.	.
=	=	=103	=103	=103
2T	2V65	8.EL	2r	2r
.	.	16F#Jk	.	.
.	.	8E'L)	.	.
.	.	8D'J	.	.
=	=	=104	=104	=104
2T	2I	8C#'L	2r	8e'L
.	.	8E'	.	8a'J
.	.	8AA'J	.	(16ALL
.	.	.	.	16B
.	.	8r	.	16c#
.	.	.	.	16dJJ
=	=	=105	=105	=105
2T	2V65	8GG#'L	2r	8.eL
.	.	8BB'	.	.
.	.	.	.	16f#Jk
.	.	8EE'J	.	8e'L)
.	.	8r	.	8d'J
=	=	=106	=106	=106
4T	4I	8AA'L	2r	(4c#
.	.	8C#'	.	.
4D	4V	8D'	.	16BLL
.	.	.	.	16d
.	.	8E'J	.	16B
.	.	.	.	16G#JJ
=	=	=107	=107	=107
8T	8I	8AA'L	2r	4A)
8P	8IV	(16AL	.	.
.	.	16F#JJ	.	.
8P	8I6	8E'L)	.	8r
8P	8IV	(16F#L	.	(16aLL
.	.	16DJJ	.	16f#JJ
=	=	=108	=108	=108
4D	4I64	8C#'L)	2r	8e'L)
.	.	8D'J	.	(16f#L
.	.	.	.	16dJJ
4D	4V	8E'L	.	8c#'L)
.	.	8EE'J	.	(16dL
.	.	.	.	16BJJ
=	=	=109	=109	=109
8T	8I	4AA	2r	8A'L)
8P	8IV	.	.	(16aL
.	.	.	.	16f#JJ
8P	8I6	8r	.	8e'L)
8P	8IV	(16ALL	.	(16f#L
.	.	16F#JJ	.	16dJJ
=	=	=110	=110	=110
4D	4I64	8E'L)	2r	8c#'L)
.	.	(16F#L	.	(16dL
.	.	16DJJ	.	16BJJ
4D	4V	8E'L)	.	8A'L)
.	.	8EE'J	.	(16BL
.	.	.	.	16G#JJ
=	=	=111	=111	=111
4.T	4.I	8AAL	4.r	4A')
.	.	8EE	.	.
.	.	8AAAJ	.	8r
*-	*-	*-	*-	*-
